X:77
T:Moun Paire Me N'o Lougado
M:3/4
L:1/8
N:Assez anim
N:La Bourre 4th edition 1929, page 78
Z:Steve Mansfield www.lesession.co.uk April 2012
K:G
!p!A B A | B2 d2 (Bc) | (BA) G > A B A |
B2 d2 (Bc) | (BA) !fermata! G2 G G > A | B c B A B A |
!pp!G2 G2 D2- | D2 z2 B2 || [M:C] B A/ B/ c A B A A2 |
A > d d c B2 A2 | G > d d c B2 A2 | !fermata! G4 z4 |]

